fusion/fusion_icon_color.svg

<?xml version="1.0" encoding="utf-8"?>
<!-- Generator: Adobe Illustrator 28.3.0, SVG Export Plug-In . SVG Version: 6.00 Build 0)  -->
<svg version="1.1" id="Layer_1" xmlns="http://www.w3.org/2000/svg" xmlns:xlink="http://www.w3.org/1999/xlink" x="0px" y="0px"
	 viewBox="0 0 500 500" style="enable-background:new 0 0 500 500;" xml:space="preserve">
<style type="text/css">
	.st0{clip-path:url(#SVGID_00000046323463101320189760000003689242643150075802_);}
	.st1{fill:#FA6863;}
</style>
<g>
	<defs>
		<rect id="SVGID_1_" x="125" y="125" width="250" height="250"/>
	</defs>
	<clipPath id="SVGID_00000121242373976719052420000011419107382022797234_">
		<use xlink:href="#SVGID_1_"  style="overflow:visible;"/>
	</clipPath>
	<g style="clip-path:url(#SVGID_00000121242373976719052420000011419107382022797234_);">
		<path class="st1" d="M244.6,328.9c-39.4-2.6-71.1-34.3-73.5-73.8H125c2.6,65,54.7,117.2,119.6,119.9V328.9z"/>
		<path class="st1" d="M171.1,244.6c2.6-39.4,34.3-71.1,73.8-73.5V125c-65,2.6-117.2,54.7-119.9,119.6H171.1z"/>
		<path class="st1" d="M328.9,255.4c-2.6,39.4-34.3,71.1-73.8,73.5V375c65-2.6,117.2-54.7,119.9-119.6H328.9z"/>
		<path class="st1" d="M255.4,171.1c39.4,2.6,71.1,34.3,73.5,73.8H375c-2.6-65-54.7-117.2-119.6-119.9V171.1z"/>
	</g>
</g>
</svg>

<svg width="500" height="500" viewBox="0 0 500 500" fill="none" xmlns="http://www.w3.org/2000/svg">
<mask id="mask0_416_546" style="mask-type:luminance" maskUnits="userSpaceOnUse" x="125" y="125" width="250" height="250">
<path d="M375 125H125V375H375V125Z" fill="white"/>
</mask>
<g mask="url(#mask0_416_546)">
<path d="M244.6 328.9C205.2 326.3 173.5 294.6 171.1 255.1H125C127.6 320.1 179.7 372.3 244.6 375V328.9Z" fill="#201637"/>
<path d="M171.1 244.6C173.7 205.2 205.4 173.5 244.9 171.1V125C179.9 127.6 127.7 179.7 125 244.6H171.1Z" fill="#201637"/>
<path d="M328.9 255.4C326.3 294.8 294.6 326.5 255.1 328.9V375C320.1 372.4 372.3 320.3 375 255.4H328.9Z" fill="#201637"/>
<path d="M255.4 171.1C294.8 173.7 326.5 205.4 328.9 244.9H375C372.4 179.9 320.3 127.7 255.4 125V171.1Z" fill="#201637"/>
</g>
</svg>
